X:1
T:Thomas The Rhymer
M:3/2
L:1/4
C:Trad/Seattle
S:Matt Seattle <theborderpiper@googlemail.com> scots_music 2009-9-7
R:Air
N:draft version
K:Ddorian
A de | "Dm(add9)"f2 ed cd | A2- A Ade | f2 ed fg | "A5"a2- aA de |
"Dm(add9)"f2 ed cd | A2 d>e fe | "D5"d2 "C5"dc "A5"A/B/c | "G5"d2- d |]
